X: 6920
T: Cheltenham Spa
R: jig
M: 6/8
K: Cmajor
e/d/|c2 G E2 G|A2 B cBA|G2 c e2 c|Bdd d2 e/d/|
c2 G E2 G|A2 B cBA|G2 c e2 c|d3 c:|
c/c/|B2 d f2 B|c2 e g2 c|B2 d f2 B|c3 c2 c|
B2 d f2 B|c2 e g2 c|ded cBA|G3 G2:|

